;FLAVOR:Marlin
;TIME:401
;Filament used: 0.178946m
;Layer height: 0.12
;MINX:92
;MINY:138
;MINZ:0.12
;MAXX:208
;MAXY:162
;MAXZ:2.04
;Generated with Cura_SteamEngine master
M140 S50
M105
M190 S50
M104 S200
M105
M109 S200
M82 ;absolute extrusion mode
M201 X500.00 Y500.00 Z100.00 E5000.00 ;Setup machine max acceleration
M203 X500.00 Y500.00 Z10.00 E50.00 ;Setup machine max feedrate
M204 P500.00 R1000.00 T500.00 ;Setup Print/Retract/Travel acceleration
M205 X8.00 Y8.00 Z0.40 E5.00 ;Setup Jerk
M220 S100 ;Reset Feedrate
M221 S100 ;Reset Flowrate

G28 ;Home

G92 E0 ;Reset Extruder
G1 Z2.0 F3000 ;Move Z Axis up
G1 X10.1 Y20 Z0.28 F5000.0 ;Move to start position
G1 X10.1 Y200.0 Z0.28 F1500.0 E15 ;Draw the first line
G1 X10.4 Y200.0 Z0.28 F5000.0 ;Move to side a little
G1 X10.4 Y20 Z0.28 F1500.0 E30 ;Draw the second line
G92 E0 ;Reset Extruder
G1 Z2.0 F3000 ;Move Z Axis up

G92 E0
G92 E0
G1 F2700 E-5
;LAYER_COUNT:17
;LAYER:0
M107
G0 F6000 X96.626 Y140.051 Z0.12
;TYPE:SKIRT
G1 F2700 E0
G1 F1200 X97.412 Y139.539 E0.01872
G1 X98.239 Y139.097 E0.03743
G1 X99.101 Y138.727 E0.05615
G1 X99.991 Y138.431 E0.07487
G1 X100.903 Y138.213 E0.09358
G1 X101.83 Y138.072 E0.11229
G1 X102.701 Y138.013 E0.12972
G1 X103.022 Y138.004 E0.13612
G1 X103.33 Y138 E0.14227
G1 X196.293 Y138 E1.99745
G1 X197.149 Y138.011 E2.01453
G1 X198.085 Y138.065 E2.03324
G1 X199.013 Y138.197 E2.05195
G1 X199.927 Y138.409 E2.07067
G1 X200.819 Y138.698 E2.08938
G1 X201.684 Y139.061 E2.1081
G1 X202.514 Y139.497 E2.12681
G1 X203.305 Y140.002 E2.14554
G1 X204.049 Y140.573 E2.16426
G1 X204.742 Y141.205 E2.18298
G1 X205.379 Y141.893 E2.20169
G1 X205.954 Y142.634 E2.2204
G1 X206.465 Y143.42 E2.23911
G1 X206.907 Y144.248 E2.25784
G1 X207.276 Y145.11 E2.27656
G1 X207.571 Y146 E2.29527
G1 X207.789 Y146.912 E2.31398
G1 X207.929 Y147.84 E2.33271
G1 X207.987 Y148.701 E2.34993
G1 X207.996 Y149.021 E2.35632
G1 X208 Y149.33 E2.36248
G1 X207.999 Y150.397 E2.38378
G1 X207.99 Y151.127 E2.39835
G1 X207.939 Y152.063 E2.41705
G1 X207.808 Y152.992 E2.43578
G1 X207.598 Y153.906 E2.45449
G1 X207.311 Y154.799 E2.47321
G1 X206.949 Y155.664 E2.49192
G1 X206.515 Y156.495 E2.51063
G1 X206.011 Y157.287 E2.52937
G1 X205.442 Y158.032 E2.54807
G1 X204.812 Y158.726 E2.56678
G1 X204.124 Y159.364 E2.5855
G1 X203.385 Y159.942 E2.60422
G1 X202.6 Y160.454 E2.62293
G1 X201.773 Y160.897 E2.64165
G1 X200.912 Y161.269 E2.66037
G1 X200.022 Y161.565 E2.67909
G1 X199.11 Y161.785 E2.69781
G1 X198.183 Y161.926 E2.71652
G1 X197.299 Y161.987 E2.7342
G1 X196.978 Y161.996 E2.74061
G1 X196.67 Y162 E2.74676
G1 X103.565 Y161.999 E4.60477
G1 X102.867 Y161.99 E4.6187
G1 X101.931 Y161.938 E4.63741
G1 X101.002 Y161.806 E4.65613
G1 X100.088 Y161.596 E4.67485
G1 X99.195 Y161.309 E4.69357
G1 X98.33 Y160.946 E4.71229
G1 X97.499 Y160.512 E4.731
G1 X96.708 Y160.008 E4.74971
G1 X95.963 Y159.438 E4.76843
G1 X95.269 Y158.807 E4.78715
G1 X94.632 Y158.12 E4.80585
G1 X94.055 Y157.38 E4.82457
G1 X93.543 Y156.594 E4.84329
G1 X93.1 Y155.767 E4.86201
G1 X92.729 Y154.906 E4.88072
G1 X92.433 Y154.016 E4.89944
G1 X92.214 Y153.104 E4.91816
G1 X92.073 Y152.177 E4.93687
G1 X92.013 Y151.288 E4.95465
G1 X92.004 Y150.955 E4.9613
G1 X92 Y150.658 E4.96723
G1 X92.001 Y149.525 E4.98984
G1 X92.01 Y148.86 E5.00311
G1 X92.063 Y147.924 E5.02182
G1 X92.195 Y146.995 E5.04054
G1 X92.406 Y146.081 E5.05926
G1 X92.694 Y145.189 E5.07797
G1 X93.057 Y144.324 E5.09669
G1 X93.492 Y143.493 E5.11541
G1 X93.996 Y142.703 E5.13411
G1 X94.566 Y141.958 E5.15283
G1 X95.198 Y141.264 E5.17156
G1 X95.886 Y140.627 E5.19027
G1 X96.626 Y140.051 E5.20898
G0 F6000 X97.01 Y140.27
G1 F1200 X97.791 Y139.782 E5.22736
G1 X98.611 Y139.364 E5.24573
G1 X99.465 Y139.019 E5.26411
G1 X100.345 Y138.749 E5.28248
G1 X101.245 Y138.557 E5.30084
G1 X102.159 Y138.443 E5.31923
G1 X102.712 Y138.413 E5.33028
G1 X103.033 Y138.404 E5.33669
G1 X103.33 Y138.4 E5.34261
G1 X196.293 Y138.4 E7.19779
G1 X197.143 Y138.411 E7.21476
G1 X198.062 Y138.464 E7.23313
G1 X198.973 Y138.597 E7.2515
G1 X199.869 Y138.808 E7.26987
G1 X200.743 Y139.096 E7.28823
G1 X201.59 Y139.459 E7.30662
G1 X202.401 Y139.894 E7.32499
G1 X203.171 Y140.398 E7.34335
G1 X203.895 Y140.967 E7.36173
G1 X204.567 Y141.597 E7.38011
G1 X205.182 Y142.282 E7.39848
G1 X205.735 Y143.018 E7.41685
G1 X206.222 Y143.799 E7.43522
G1 X206.639 Y144.62 E7.4536
G1 X206.984 Y145.474 E7.47198
G1 X207.253 Y146.354 E7.49034
G1 X207.445 Y147.255 E7.50873
G1 X207.558 Y148.168 E7.52708
G1 X207.587 Y148.712 E7.53796
G1 X207.596 Y149.032 E7.54434
G1 X207.6 Y149.33 E7.55029
G1 X207.599 Y150.392 E7.57149
G1 X207.59 Y151.122 E7.58605
G1 X207.539 Y152.041 E7.60442
G1 X207.408 Y152.952 E7.62279
G1 X207.199 Y153.849 E7.64117
G1 X206.912 Y154.724 E7.65955
G1 X206.551 Y155.57 E7.6779
G1 X206.117 Y156.383 E7.69629
G1 X205.615 Y157.154 E7.71465
G1 X205.048 Y157.879 E7.73302
G1 X204.42 Y158.552 E7.75139
G1 X203.735 Y159.169 E7.76979
G1 X203 Y159.723 E7.78816
G1 X202.22 Y160.211 E7.80652
G1 X201.4 Y160.63 E7.82489
G1 X200.547 Y160.977 E7.84327
G1 X199.667 Y161.248 E7.86165
G1 X198.767 Y161.441 E7.88001
G1 X197.854 Y161.556 E7.89838
G1 X197.288 Y161.587 E7.90969
G1 X196.967 Y161.596 E7.9161
G1 X196.67 Y161.6 E7.92203
G1 X103.57 Y161.599 E9.77994
G1 X102.872 Y161.59 E9.79387
G1 X101.953 Y161.538 E9.81224
G1 X101.042 Y161.407 E9.8306
G1 X100.146 Y161.197 E9.84897
G1 X99.271 Y160.91 E9.86735
G1 X98.424 Y160.548 E9.88573
G1 X97.612 Y160.114 E9.9041
G1 X96.841 Y159.612 E9.92246
G1 X96.116 Y159.044 E9.94084
G1 X95.443 Y158.415 E9.95922
G1 X94.828 Y157.731 E9.97758
G1 X94.274 Y156.996 E9.99595
G1 X93.786 Y156.215 E10.01433
G1 X93.367 Y155.395 E10.0327
G1 X93.021 Y154.542 E10.05107
G1 X92.751 Y153.662 E10.06944
G1 X92.558 Y152.761 E10.08783
G1 X92.444 Y151.848 E10.10619
G1 X92.413 Y151.277 E10.1176
G1 X92.404 Y150.944 E10.12425
G1 X92.4 Y150.658 E10.12996
G1 X92.401 Y149.531 E10.15245
G1 X92.41 Y148.866 E10.16572
G1 X92.462 Y147.946 E10.18411
G1 X92.594 Y147.035 E10.20248
G1 X92.805 Y146.139 E10.22085
G1 X93.092 Y145.264 E10.23923
G1 X93.455 Y144.418 E10.2576
G1 X93.889 Y143.606 E10.27597
G1 X94.392 Y142.835 E10.29434
G1 X94.961 Y142.111 E10.31272
G1 X95.589 Y141.439 E10.33107
G1 X96.274 Y140.823 E10.34946
G1 X97.01 Y140.27 E10.36783
G0 F6000 X97.394 Y140.494
G1 F1200 X98.169 Y140.031 E10.38585
G1 X98.982 Y139.638 E10.40387
G1 X99.827 Y139.318 E10.4219
G1 X100.696 Y139.075 E10.4399
G1 X101.584 Y138.909 E10.45793
G1 X102.723 Y138.813 E10.48074
G1 X103.044 Y138.804 E10.48715
G1 X103.33 Y138.8 E10.49286
G1 X196.293 Y138.8 E12.34804
G1 X197.137 Y138.811 E12.36488
G1 X198.039 Y138.864 E12.38291
G1 X198.932 Y138.996 E12.40093
G1 X199.81 Y139.207 E12.41895
G1 X200.666 Y139.495 E12.43697
G1 X201.493 Y139.857 E12.45499
G1 X202.285 Y140.292 E12.47302
G1 X203.036 Y140.794 E12.49104
G1 X203.739 Y141.361 E12.50907
G1 X204.389 Y141.988 E12.52709
G1 X204.981 Y142.67 E12.54511
G1 X205.511 Y143.401 E12.56313
G1 X205.973 Y144.177 E12.58115
G1 X206.366 Y144.99 E12.59918
G1 X206.684 Y145.835 E12.61719
G1 X206.927 Y146.705 E12.63522
G1 X207.092 Y147.593 E12.65324
G1 X207.187 Y148.723 E12.67587
G1 X207.196 Y149.043 E12.68226
G1 X207.2 Y149.33 E12.68799
G1 X207.199 Y150.387 E12.70908
G1 X207.19 Y151.117 E12.72365
G1 X207.139 Y152.018 E12.74166
G1 X207.008 Y152.912 E12.75969
G1 X206.799 Y153.791 E12.77772
G1 X206.513 Y154.647 E12.79573
G1 X206.152 Y155.475 E12.81376
G1 X205.72 Y156.268 E12.83178
G1 X205.219 Y157.019 E12.8498
G1 X204.654 Y157.723 E12.86781
G1 X204.028 Y158.375 E12.88585
G1 X203.347 Y158.968 E12.90387
G1 X202.617 Y159.499 E12.92188
G1 X201.842 Y159.964 E12.93992
G1 X201.029 Y160.357 E12.95794
G1 X200.185 Y160.678 E12.97596
G1 X199.316 Y160.923 E12.99398
G1 X198.428 Y161.089 E13.01201
G1 X197.277 Y161.187 E13.03506
G1 X196.956 Y161.196 E13.04147
G1 X196.67 Y161.2 E13.04717
G1 X103.575 Y161.199 E14.90499
G1 X102.877 Y161.19 E14.91892
G1 X101.976 Y161.139 E14.93693
G1 X101.082 Y161.007 E14.95496
G1 X100.204 Y160.798 E14.97297
G1 X99.347 Y160.511 E14.99101
G1 X98.52 Y160.15 E15.00901
G1 X97.727 Y159.717 E15.02704
G1 X96.976 Y159.216 E15.04506
G1 X96.272 Y158.65 E15.06309
G1 X95.621 Y158.024 E15.08111
G1 X95.028 Y157.343 E15.09913
G1 X94.498 Y156.612 E15.11715
G1 X94.034 Y155.837 E15.13518
G1 X93.64 Y155.024 E15.1532
G1 X93.32 Y154.18 E15.17122
G1 X93.076 Y153.31 E15.18925
G1 X92.91 Y152.422 E15.20728
G1 X92.813 Y151.267 E15.23041
G1 X92.804 Y150.934 E15.23706
G1 X92.8 Y150.658 E15.24256
G1 X92.801 Y149.536 E15.26495
G1 X92.81 Y148.871 E15.27823
G1 X92.862 Y147.969 E15.29626
G1 X92.994 Y147.076 E15.31427
G1 X93.204 Y146.198 E15.33229
G1 X93.491 Y145.341 E15.35032
G1 X93.853 Y144.514 E15.36834
G1 X94.286 Y143.722 E15.38635
G1 X94.788 Y142.971 E15.40438
G1 X95.355 Y142.267 E15.42242
G1 X95.981 Y141.617 E15.44043
G1 X96.662 Y141.024 E15.45845
G1 X97.394 Y140.494 E15.47648
G1 F2700 E10.47648
;MESH:rod.stl
G0 F6000 X103.414 Y148.335
G0 X103.414 Y149.414
G0 X196.4 Y150.4
;TYPE:WALL-INNER
G1 F2700 E15.47648
G1 F1200 X103.6 Y150.4 E17.32841
G1 X103.6 Y149.6 E17.34437
G1 X196.4 Y149.6 E19.1963
G1 X196.4 Y150.4 E19.21226
G0 F6000 X196.8 Y150.8
;TYPE:WALL-OUTER
G1 F1200 X103.2 Y150.8 E21.08015
G1 X103.2 Y149.2 E21.11208
G1 X196.8 Y149.2 E22.97997
G1 X196.8 Y150.8 E23.0119
G0 F6000 X196.05 Y149.947
;TYPE:SKIN
G1 F1200 X195.819 Y149.999 E23.01723
G1 X140.665 Y149.999 E24.25933
G1 X104.178 Y149.999 E25.08104
G1 X103.806 Y150.192 E25.09047
G1 F2700 E20.09047
G0 F6000 X103.838 Y150.224
G0 X196.16 Y149.774
G1 F2700 E25.09047
G1 F1200 X196.224 Y149.838 E25.09138
G0 F6000 X196.2 Y149.838
;MESH:NONMESH
G0 F300 X196.2 Y149.838 Z0.24
G0 F6000 X196.4 Y150.4
;TIME_ELAPSED:70.499468
;LAYER:1
M106 S85
;TYPE:WALL-INNER
;MESH:rod.stl
G1 F1350 X103.6 Y150.4 E26.9433
G1 X103.6 Y149.6 E26.95927
G1 X196.4 Y149.6 E28.81119
G1 X196.4 Y150.4 E28.82716
G0 F7500 X196.8 Y150.8
;TYPE:WALL-OUTER
G1 F1350 X103.2 Y150.8 E30.69504
G1 X103.2 Y149.2 E30.72697
G1 X196.8 Y149.2 E32.59486
G1 X196.8 Y150.8 E32.62679
G0 F7500 X196.53 Y150.53
G0 X196.224 Y149.975
;TYPE:SKIN
G1 F1350 X195.973 Y150.225 E32.63033
G0 F7500 X195.916 Y149.999
G1 F1350 X195.634 Y149.999 E32.63669
G1 X140.479 Y149.999 E33.88132
G1 X104.275 Y149.999 E34.6983
G1 X103.855 Y149.853 E34.70834
G0 F7500 X103.936 Y149.8
G1 F2700 E29.70834
;MESH:NONMESH
G0 F300 X103.936 Y149.8 Z0.36
G0 F7500 X196.4 Y150.4
;TIME_ELAPSED:92.995506
;LAYER:2
M106 S170
;TYPE:WALL-INNER
;MESH:rod.stl
G1 F2700 E34.70834
G1 F1500 X103.6 Y150.4 E36.56026
G1 X103.6 Y149.6 E36.57623
G1 X196.4 Y149.6 E38.42815
G1 X196.4 Y150.4 E38.44411
G0 F9000 X196.8 Y150.8
;TYPE:WALL-OUTER
G1 F1500 X103.2 Y150.8 E40.312
G1 X103.2 Y149.2 E40.34393
G1 X196.8 Y149.2 E42.21182
G1 X196.8 Y150.8 E42.24375
G0 F9000 X196.05 Y149.947
;TYPE:SKIN
G1 F1500 X195.819 Y149.999 E42.24908
G1 X140.665 Y149.999 E43.49118
G1 X104.178 Y149.999 E44.31289
G1 X103.806 Y150.192 E44.32233
G1 F2700 E39.32233
G0 F9000 X103.838 Y150.224
G0 X196.16 Y149.774
G1 F2700 E44.32233
G1 F1500 X196.224 Y149.838 E44.32323
G0 F9000 X196.2 Y149.838
;MESH:NONMESH
G0 F300 X196.2 Y149.838 Z0.48
G0 F9000 X196.4 Y150.4
;TIME_ELAPSED:113.744407
;LAYER:3
M106 S255
;TYPE:WALL-INNER
;MESH:rod.stl
G1 F1500 X103.6 Y150.4 E46.17516
G1 X103.6 Y149.6 E46.19112
G1 X196.4 Y149.6 E48.04304
G1 X196.4 Y150.4 E48.05901
G0 F9000 X196.8 Y150.8
;TYPE:WALL-OUTER
G1 F1500 X103.2 Y150.8 E49.9269
G1 X103.2 Y149.2 E49.95883
G1 X196.8 Y149.2 E51.82672
G1 X196.8 Y150.8 E51.85865
G0 F9000 X196.53 Y150.53
G0 X196.224 Y149.975
;TYPE:SKIN
G1 F1500 X195.973 Y150.225 E51.86218
G0 F9000 X195.916 Y149.999
G1 F1500 X195.634 Y149.999 E51.86855
G1 X140.479 Y149.999 E53.11318
G1 X104.275 Y149.999 E53.93016
G1 X103.855 Y149.853 E53.94019
G0 F9000 X103.936 Y149.8
G1 F2700 E48.94019
;MESH:NONMESH
G0 F300 X103.936 Y149.8 Z0.6
G0 F9000 X196.4 Y150.4
;TIME_ELAPSED:134.121893
;LAYER:4
;TYPE:WALL-INNER
;MESH:rod.stl
G1 F2700 E53.94019
G1 F1500 X103.6 Y150.4 E55.79211
G1 X103.6 Y149.6 E55.80808
G1 X196.4 Y149.6 E57.66
G1 X196.4 Y150.4 E57.67597
G0 F9000 X196.8 Y150.8
;TYPE:WALL-OUTER
G1 F1500 X103.2 Y150.8 E59.54386
G1 X103.2 Y149.2 E59.57579
G1 X196.8 Y149.2 E61.44368
G1 X196.8 Y150.8 E61.47561
G0 F9000 X196.05 Y149.947
;TYPE:SKIN
G1 F1500 X195.819 Y149.999 E61.48094
G1 X140.665 Y149.999 E62.72304
G1 X104.178 Y149.999 E63.54474
G1 X103.806 Y150.192 E63.55418
G1 F2700 E58.55418
G0 F9000 X103.838 Y150.224
G0 X196.16 Y149.774
G1 F2700 E63.55418
G1 F1500 X196.224 Y149.838 E63.55509
G0 F9000 X196.2 Y149.838
;MESH:NONMESH
G0 F300 X196.2 Y149.838 Z0.72
G0 F9000 X196.4 Y150.4
;TIME_ELAPSED:154.870794
;LAYER:5
;TYPE:WALL-INNER
;MESH:rod.stl
G1 F1500 X103.6 Y150.4 E65.40701
G1 X103.6 Y149.6 E65.42297
G1 X196.4 Y149.6 E67.2749
G1 X196.4 Y150.4 E67.29086
G0 F9000 X196.8 Y150.8
;TYPE:WALL-OUTER
G1 F1500 X103.2 Y150.8 E69.15875
G1 X103.2 Y149.2 E69.19068
G1 X196.8 Y149.2 E71.05857
G1 X196.8 Y150.8 E71.0905
G0 F9000 X196.53 Y150.53
G0 X196.224 Y149.975
;TYPE:SKIN
G1 F1500 X195.973 Y150.225 E71.09404
G0 F9000 X195.916 Y149.999
G1 F1500 X195.634 Y149.999 E71.1004
G1 X140.479 Y149.999 E72.34503
G1 X104.275 Y149.999 E73.16201
G1 X103.855 Y149.853 E73.17204
G0 F9000 X103.936 Y149.8
G1 F2700 E68.17204
;MESH:NONMESH
G0 F300 X103.936 Y149.8 Z0.84
G0 F9000 X196.4 Y150.4
;TIME_ELAPSED:175.248279
;LAYER:6
;TYPE:WALL-INNER
;MESH:rod.stl
G1 F2700 E73.17204
G1 F1500 X103.6 Y150.4 E75.02397
G1 X103.6 Y149.6 E75.03993
G1 X196.4 Y149.6 E76.89186
G1 X196.4 Y150.4 E76.90782
G0 F9000 X196.8 Y150.8
;TYPE:WALL-OUTER
G1 F1500 X103.2 Y150.8 E78.77571
G1 X103.2 Y149.2 E78.80764
G1 X196.8 Y149.2 E80.67553
G1 X196.8 Y150.8 E80.70746
G0 F9000 X196.05 Y149.947
;TYPE:SKIN
G1 F1500 X195.819 Y149.999 E80.71279
G1 X140.665 Y149.999 E81.95489
G1 X104.178 Y149.999 E82.7766
G1 X103.806 Y150.192 E82.78604
G1 F2700 E77.78604
G0 F9000 X103.838 Y150.224
G0 X196.16 Y149.774
G1 F2700 E82.78604
G1 F1500 X196.224 Y149.838 E82.78694
G0 F9000 X196.2 Y149.838
;MESH:NONMESH
G0 F300 X196.2 Y149.838 Z0.96
G0 F9000 X196.4 Y150.4
;TIME_ELAPSED:195.997181
;LAYER:7
;TYPE:WALL-INNER
;MESH:rod.stl
G1 F1500 X103.6 Y150.4 E84.63886
G1 X103.6 Y149.6 E84.65483
G1 X196.4 Y149.6 E86.50675
G1 X196.4 Y150.4 E86.52272
G0 F9000 X196.8 Y150.8
;TYPE:WALL-OUTER
G1 F1500 X103.2 Y150.8 E88.39061
G1 X103.2 Y149.2 E88.42254
G1 X196.8 Y149.2 E90.29043
G1 X196.8 Y150.8 E90.32236
G0 F9000 X196.53 Y150.53
G0 X196.224 Y149.975
;TYPE:SKIN
G1 F1500 X195.973 Y150.225 E90.32589
G0 F9000 X195.916 Y149.999
G1 F1500 X195.634 Y149.999 E90.33225
G1 X140.479 Y149.999 E91.57688
G1 X104.275 Y149.999 E92.39387
G1 X103.855 Y149.853 E92.4039
G0 F9000 X103.936 Y149.8
G1 F2700 E87.4039
;MESH:NONMESH
G0 F300 X103.936 Y149.8 Z1.08
G0 F9000 X196.4 Y150.4
;TIME_ELAPSED:216.374666
;LAYER:8
;TYPE:WALL-INNER
;MESH:rod.stl
G1 F2700 E92.4039
G1 F1500 X103.6 Y150.4 E94.25582
G1 X103.6 Y149.6 E94.27179
G1 X196.4 Y149.6 E96.12371
G1 X196.4 Y150.4 E96.13968
G0 F9000 X196.8 Y150.8
;TYPE:WALL-OUTER
G1 F1500 X103.2 Y150.8 E98.00757
G1 X103.2 Y149.2 E98.0395
G1 X196.8 Y149.2 E99.90739
G1 X196.8 Y150.8 E99.93932
G0 F9000 X196.05 Y149.947
;TYPE:SKIN
G1 F1500 X195.819 Y149.999 E99.94465
G1 X140.665 Y149.999 E101.18675
G1 X104.178 Y149.999 E102.00845
G1 X103.806 Y150.192 E102.01789
G1 F2700 E97.01789
G0 F9000 X103.838 Y150.224
G0 X196.16 Y149.774
G1 F2700 E102.01789
G1 F1500 X196.224 Y149.838 E102.01879
G0 F9000 X196.2 Y149.838
;MESH:NONMESH
G0 F300 X196.2 Y149.838 Z1.2
G0 F9000 X196.4 Y150.4
;TIME_ELAPSED:237.123568
;LAYER:9
;TYPE:WALL-INNER
;MESH:rod.stl
G1 F1500 X103.6 Y150.4 E103.87072
G1 X103.6 Y149.6 E103.88668
G1 X196.4 Y149.6 E105.73861
G1 X196.4 Y150.4 E105.75457
G0 F9000 X196.8 Y150.8
;TYPE:WALL-OUTER
G1 F1500 X103.2 Y150.8 E107.62246
G1 X103.2 Y149.2 E107.65439
G1 X196.8 Y149.2 E109.52228
G1 X196.8 Y150.8 E109.55421
G0 F9000 X196.53 Y150.53
G0 X196.224 Y149.975
;TYPE:SKIN
G1 F1500 X195.973 Y150.225 E109.55775
G0 F9000 X195.916 Y149.999
G1 F1500 X195.634 Y149.999 E109.56411
G1 X140.479 Y149.999 E110.80874
G1 X104.275 Y149.999 E111.62572
G1 X103.855 Y149.853 E111.63575
G0 F9000 X103.936 Y149.8
G1 F2700 E106.63575
;MESH:NONMESH
G0 F300 X103.936 Y149.8 Z1.32
G0 F9000 X196.4 Y150.4
;TIME_ELAPSED:257.501053
;LAYER:10
