;FLAVOR:Marlin
;TIME:1513
;Filament used: 0.609459m
;Layer height: 0.12
;MINX:127.544
;MINY:127.338
;MINZ:0.144
;MAXX:172.662
;MAXY:172.661
;MAXZ:9.114
;Generated with Cura_SteamEngine 4.8.0
M140 S50
M105
M190 S50
M104 S210
M105
M109 S210
M82 ;absolute extrusion mode
M201 X500.00 Y500.00 Z100.00 E5000.00 ;Setup machine max acceleration
M203 X500.00 Y500.00 Z10.00 E50.00 ;Setup machine max feedrate
M204 P500.00 R1000.00 T500.00 ;Setup Print/Retract/Travel acceleration
M205 X8.00 Y8.00 Z0.40 E5.00 ;Setup Jerk
M220 S100 ;Reset Feedrate
M221 S100 ;Reset Flowrate

G28 ;Home

G92 E0 ;Reset Extruder
G1 Z2.0 F3000 ;Move Z Axis up
G1 X10.1 Y20 Z0.28 F5000.0 ;Move to start position
G1 X10.1 Y200.0 Z0.28 F1500.0 E15 ;Draw the first line
G1 X10.4 Y200.0 Z0.28 F5000.0 ;Move to side a little
G1 X10.4 Y20 Z0.28 F1500.0 E30 ;Draw the second line
G92 E0 ;Reset Extruder
G1 Z2.0 F3000 ;Move Z Axis up

G92 E0
G92 E0
G1 F2700 E-5
;LAYER_COUNT:70
;LAYER:-6
M107
G0 F9000 X134.468 Y134.991 Z0.144
;TYPE:SUPPORT-INTERFACE
G1 F2700 E0
G1 F900 X135.036 Y134.425 E0.0384
G1 X135.259 Y134.215 E0.05308
G1 X135.741 Y133.776 E0.0843
G1 X136.042 Y133.518 E0.10329
G1 X136.612 Y133.051 E0.13858
G1 X136.849 Y132.866 E0.15298
G1 X137.454 Y132.419 E0.18901
G1 X137.732 Y132.225 E0.20524
G1 X138.326 Y131.829 E0.23944
G1 X138.611 Y131.65 E0.25555
G1 X139.237 Y131.276 E0.29048
G1 X139.464 Y131.147 E0.30298
G1 X140.15 Y130.78 E0.34025
G1 X140.44 Y130.635 E0.35578
G1 X141.05 Y130.343 E0.38817
G1 X141.354 Y130.207 E0.40412
G1 X142.096 Y129.9 E0.44258
G1 X142.424 Y129.775 E0.45939
G1 X143.091 Y129.536 E0.49332
G1 X143.398 Y129.436 E0.50879
G1 X144.134 Y129.215 E0.54559
G1 X144.466 Y129.125 E0.56207
G1 X145.124 Y128.96 E0.59456
G1 X145.466 Y128.884 E0.61134
G1 X146.104 Y128.758 E0.64248
G1 X146.48 Y128.692 E0.66077
G1 X147.035 Y128.608 E0.68765
G1 X147.514 Y128.546 E0.71078
G1 X148.239 Y128.474 E0.74568
G1 X148.596 Y128.447 E0.76283
G1 X149.327 Y128.412 E0.79788
G1 X149.694 Y128.404 E0.81546
G1 X150.343 Y128.404 E0.84654
G1 X150.688 Y128.413 E0.86307
G1 X151.448 Y128.45 E0.89951
G1 X151.785 Y128.475 E0.9157
G1 X152.466 Y128.542 E0.94847
G1 X152.797 Y128.583 E0.96445
G1 X153.425 Y128.676 E0.99485
G1 X153.643 Y128.711 E1.00543
G1 X153.878 Y128.752 E1.01685
G1 X154.494 Y128.874 E1.04693
G1 X154.898 Y128.964 E1.06675
G1 X155.627 Y129.148 E1.10276
G1 X155.919 Y129.229 E1.11728
G1 X156.592 Y129.432 E1.15094
G1 X156.952 Y129.55 E1.16909
G1 X157.674 Y129.811 E1.20586
G1 X157.926 Y129.909 E1.21881
G1 X158.627 Y130.2 E1.25516
G1 X158.895 Y130.318 E1.26919
G1 X159.545 Y130.624 E1.30359
G1 X159.891 Y130.8 E1.32219
G1 X160.542 Y131.149 E1.35756
G1 X160.78 Y131.284 E1.37067
G1 X161.464 Y131.695 E1.40889
G1 X161.765 Y131.888 E1.42601
G1 X162.346 Y132.278 E1.45953
G1 X162.577 Y132.441 E1.47307
G1 X163.135 Y132.855 E1.50635
G1 X163.406 Y133.066 E1.5228
G1 X163.911 Y133.478 E1.55401
G1 X164.212 Y133.735 E1.57297
G1 X164.773 Y134.244 E1.60925
G1 X164.956 Y134.417 E1.62131
G1 X165.521 Y134.98 E1.65951
G1 X165.762 Y135.233 E1.67624
G1 X166.229 Y135.747 E1.70951
G1 X166.482 Y136.042 E1.72812
G1 X166.965 Y136.632 E1.76464
G1 X167.134 Y136.849 E1.77781
G1 X167.554 Y137.417 E1.81164
G1 X167.759 Y137.708 E1.82869
G1 X168.184 Y138.346 E1.86541
G1 X168.35 Y138.611 E1.88039
G1 X168.711 Y139.213 E1.91401
G1 X168.839 Y139.439 E1.92644
G1 X169.207 Y140.125 E1.96373
G1 X169.364 Y140.437 E1.98046
G1 X169.653 Y141.041 E2.01253
G1 X169.789 Y141.344 E2.02843
G1 X170.084 Y142.055 E2.0653
G1 X170.224 Y142.42 E2.08403
G1 X170.461 Y143.082 E2.1177
G1 X170.564 Y143.398 E2.13362
G1 X170.774 Y144.093 E2.16839
G1 X170.875 Y144.465 E2.18686
G1 X171.038 Y145.114 E2.2189
G1 X171.116 Y145.466 E2.23617
G1 X171.231 Y146.043 E2.26435
G1 X171.305 Y146.456 E2.28445
G1 X171.406 Y147.127 E2.31695
G1 X171.455 Y147.514 E2.33563
G1 X171.523 Y148.206 E2.36893
G1 X171.552 Y148.597 E2.38771
G1 X171.587 Y149.322 E2.42247
G1 X171.595 Y149.646 E2.438
G1 X171.596 Y150.289 E2.46879
G1 X171.59 Y150.6 E2.48369
G1 X171.549 Y151.465 E2.52517
G1 X171.525 Y151.785 E2.54054
G1 X171.458 Y152.466 E2.57331
G1 X171.417 Y152.797 E2.58928
G1 X171.325 Y153.42 E2.61945
G1 X171.297 Y153.595 E2.62793
G1 X171.249 Y153.869 E2.64126
G1 X171.129 Y154.48 E2.67108
G1 X171.042 Y154.876 E2.6905
G1 X170.853 Y155.624 E2.72745
G1 X170.781 Y155.887 E2.74051
G1 X170.558 Y156.624 E2.77739
G1 X170.456 Y156.935 E2.79306
G1 X170.194 Y157.661 E2.83003
G1 X170.091 Y157.926 E2.84365
G1 X169.813 Y158.598 E2.87848
G1 X169.691 Y158.875 E2.89297
G1 X169.378 Y159.542 E2.92826
G1 X169.2 Y159.891 E2.94703
G1 X168.859 Y160.528 E2.98163
G1 X168.706 Y160.798 E2.99649
G1 X168.332 Y161.422 E3.03134
G1 X168.153 Y161.703 E3.04729
G1 X167.758 Y162.295 E3.08138
G1 X167.561 Y162.574 E3.09774
G1 X167.145 Y163.135 E3.13119
G1 X166.917 Y163.427 E3.14893
G1 X166.45 Y163.996 E3.18419
G1 X166.265 Y164.212 E3.19781
G1 X165.755 Y164.774 E3.23416
G1 X165.518 Y165.022 E3.25059
G1 X164.988 Y165.552 E3.28648
G1 X164.806 Y165.725 E3.29851
G1 X164.217 Y166.26 E3.33662
G1 X163.928 Y166.507 E3.35483
G1 X163.408 Y166.932 E3.38699
G1 X163.13 Y167.147 E3.40383
G1 X162.549 Y167.578 E3.43847
G1 X162.288 Y167.762 E3.45377
G1 X161.68 Y168.168 E3.48878
G1 X161.385 Y168.353 E3.50546
G1 X160.759 Y168.727 E3.54039
G1 X160.532 Y168.856 E3.55289
G1 X159.846 Y169.223 E3.59015
G1 X159.528 Y169.382 E3.60718
G1 X158.862 Y169.696 E3.64245
G1 X158.54 Y169.837 E3.65928
G1 X157.931 Y170.089 E3.69085
G1 X157.571 Y170.227 E3.70931
G1 X156.913 Y170.462 E3.74278
G1 X156.597 Y170.566 E3.75871
G1 X155.861 Y170.787 E3.79552
G1 X155.529 Y170.877 E3.81199
G1 X154.877 Y171.04 E3.84418
G1 X154.54 Y171.116 E3.86073
G1 X153.825 Y171.257 E3.89563
G1 X153.528 Y171.308 E3.91006
G1 X152.776 Y171.419 E3.94647
G1 X152.472 Y171.457 E3.96114
G1 X151.782 Y171.525 E3.99435
G1 X151.404 Y171.552 E4.0125
G1 X150.673 Y171.588 E4.04755
G1 X150.301 Y171.596 E4.06538
G1 X149.634 Y171.595 E4.09732
G1 X149.327 Y171.588 E4.11203
G1 X148.51 Y171.547 E4.15121
G1 X148.218 Y171.525 E4.16523
G1 X147.528 Y171.457 E4.19844
G1 X147.142 Y171.408 E4.21708
G1 X146.457 Y171.306 E4.25024
G1 X146.09 Y171.241 E4.2681
G1 X145.436 Y171.11 E4.30004
G1 X145.097 Y171.034 E4.31668
G1 X144.368 Y170.85 E4.35269
G1 X144.076 Y170.769 E4.3672
G1 X143.403 Y170.566 E4.40087
G1 X143.033 Y170.444 E4.41953
G1 X142.316 Y170.185 E4.45604
G1 X142.069 Y170.089 E4.46873
G1 X141.353 Y169.791 E4.50588
G1 X141.06 Y169.661 E4.52123
G1 X140.472 Y169.382 E4.5524
G1 X140.154 Y169.223 E4.56943
G1 X139.468 Y168.856 E4.60669
G1 X139.19 Y168.698 E4.62201
G1 X138.53 Y168.301 E4.6589
G1 X138.252 Y168.123 E4.67471
G1 X137.662 Y167.727 E4.70874
G1 X137.414 Y167.553 E4.72325
G1 X136.853 Y167.136 E4.75673
G1 X136.594 Y166.934 E4.77246
G1 X136.009 Y166.454 E4.8087
G1 X135.744 Y166.224 E4.82551
G1 X135.215 Y165.746 E4.85965
G1 X134.991 Y165.532 E4.87449
G1 X134.449 Y164.989 E4.91124
G1 X134.205 Y164.731 E4.92825
G1 X133.691 Y164.16 E4.96504
G1 X133.487 Y163.921 E4.98009
G1 X133.039 Y163.371 E5.01407
G1 X132.853 Y163.13 E5.02865
G1 X132.411 Y162.535 E5.06415
G1 X132.235 Y162.284 E5.07883
G1 X131.813 Y161.65 E5.11531
G1 X131.645 Y161.382 E5.13045
G1 X131.273 Y160.76 E5.16517
G1 X131.144 Y160.532 E5.17771
G1 X130.767 Y159.827 E5.216
G1 X130.612 Y159.515 E5.23269
G1 X130.289 Y158.831 E5.26892
G1 X130.163 Y158.54 E5.28411
G1 X129.911 Y157.931 E5.31567
G1 X129.808 Y157.666 E5.32929
G1 X129.546 Y156.94 E5.36626
G1 X129.432 Y156.592 E5.38379
G1 X129.209 Y155.848 E5.42099
G1 X129.122 Y155.527 E5.43692
G1 X128.96 Y154.88 E5.46887
G1 X128.887 Y154.555 E5.48482
G1 X128.738 Y153.799 E5.52173
G1 X128.687 Y153.495 E5.53649
G1 X128.58 Y152.771 E5.57154
G1 X128.543 Y152.471 E5.58602
G1 X128.477 Y151.799 E5.61836
G1 X128.447 Y151.398 E5.63762
G1 X128.411 Y150.651 E5.67344
G1 X128.404 Y150.35 E5.68786
G1 X128.405 Y149.634 E5.72215
G1 X128.412 Y149.327 E5.73686
G1 X128.455 Y148.483 E5.77733
G1 X128.476 Y148.211 E5.7904
G1 X128.543 Y147.529 E5.82322
G1 X128.588 Y147.168 E5.84064
G1 X128.692 Y146.469 E5.87449
G1 X128.759 Y146.09 E5.89292
G1 X128.887 Y145.444 E5.92447
G1 X128.96 Y145.119 E5.94042
G1 X129.15 Y144.367 E5.97757
G1 X129.221 Y144.108 E5.99043
G1 X129.432 Y143.409 E6.0254
G1 X129.546 Y143.06 E6.04298
G1 X129.813 Y142.321 E6.08062
G1 X129.911 Y142.069 E6.09357
G1 X130.207 Y141.357 E6.1305
G1 X130.34 Y141.06 E6.14608
G1 X130.664 Y140.378 E6.18225
G1 X130.818 Y140.076 E6.19848
G1 X131.143 Y139.47 E6.23142
G1 X131.31 Y139.177 E6.24757
G1 X131.696 Y138.535 E6.28345
G1 X131.878 Y138.249 E6.29968
G1 X132.245 Y137.701 E6.33127
G1 X132.442 Y137.422 E6.34763
G1 X132.858 Y136.861 E6.38108
G1 X133.069 Y136.59 E6.39753
G1 X133.528 Y136.03 E6.43221
G1 X133.773 Y135.747 E6.45014
G1 X134.238 Y135.233 E6.48333
G1 X134.468 Y134.991 E6.49932
G0 F9000 X134.4 Y135.062
G1 F900 X134.4 Y164.937 E7.93018
G0 F9000 X136 Y166.446
G1 F900 X136 Y133.554 E9.50552
G0 F9000 X137.6 Y132.317
G1 F900 X137.6 Y167.683 E11.19937
G0 F9000 X139.2 Y168.703
G1 F900 X139.2 Y131.298 E12.99086
G0 F9000 X140.8 Y130.462
G1 F900 X140.8 Y169.537 E14.86234
G0 F9000 X142.4 Y170.215
G1 F900 X142.4 Y129.784 E16.79877
G0 F9000 X144 Y129.255
G1 F900 X144 Y170.746 E18.78596
G0 F9000 X145.6 Y171.142
G1 F900 X145.6 Y128.857 E20.81119
G0 F9000 X147.2 Y128.586
G1 F900 X147.2 Y171.415 E22.86247
G0 F9000 X148.8 Y171.561
G1 F900 X148.8 Y128.437 E24.92787
G0 F9000 X150.4 Y128.406
G1 F900 X150.4 Y171.594 E26.99634
G0 F9000 X152 Y171.504
G1 F900 X152 Y128.497 E29.05615
G0 F9000 X153.6 Y128.705
G1 F900 X153.6 Y171.296 E31.09602
G0 F9000 X155.2 Y170.96
G1 F900 X155.2 Y129.041 E33.10372
G0 F9000 X156.8 Y129.501
G1 F900 X156.8 Y170.5 E35.06735
G0 F9000 X158.4 Y169.895
G1 F900 X158.4 Y130.106 E36.97303
G0 F9000 X160 Y130.859
G1 F900 X160 Y169.141 E38.80653
G0 F9000 X161.6 Y168.219
G1 F900 X161.6 Y131.783 E40.55162
G0 F9000 X163.2 Y132.906
G1 F900 X163.2 Y167.093 E42.18899
G0 F9000 X164.8 Y165.731
G1 F900 X164.8 Y134.27 E43.6958
G0 F9000 X166.4 Y135.947
G1 F900 X166.4 Y164.055 E45.04202
G0 F9000 X168 Y161.933
G1 F900 X168 Y138.07 E46.18493
G0 F9000 X169.6 Y140.931
G1 F900 X169.6 Y159.069 E47.05364
G1 F2700 E42.05364
G0 F9000 X170.789 Y159.022
G0 X171.517 Y157.082
G0 X172.143 Y154.831
G0 X171.2 Y154.119
G1 F2700 E47.05364
G1 F900 X171.2 Y145.888 E47.44786
G1 F2700 E42.44786
G0 F9000 X172.243 Y145.68
G0 X171.582 Y143.085
G0 X170.621 Y140.6
G0 X169.633 Y138.681
G0 X168.42 Y136.797
G0 X167.023 Y135.038
G0 X165.456 Y133.427
G0 X163.783 Y132.01
G0 X161.976 Y130.76
G0 X160.005 Y129.665
G0 X157.932 Y128.772
G0 X155.786 Y128.09
G0 X154.502 Y127.788
G0 X152.588 Y127.485
G0 X150.269 Y127.338
G0 X147.727 Y127.441
G0 X145.172 Y127.858
G0 X142.678 Y128.553
G0 X140.6 Y129.379
G0 X138.653 Y130.383
G0 X136.816 Y131.567
G0 X135.038 Y132.978
G0 X133.586 Y134.389
G0 X132.013 Y136.213
G0 X132.8 Y136.939
G1 F2700 E47.44786
G1 F900 X132.8 Y163.058 E48.69882
G0 F9000 X131.2 Y160.63
G1 F900 X131.2 Y139.369 E49.71711
G0 F9000 X129.6 Y142.91
G1 F900 X129.6 Y157.089 E50.39621
G1 F2700 E45.39621
G0 F300 X129.6 Y157.089 Z0.324
G0 F9000 X128.773 Y157.936
G0 X129.619 Y159.857
G0 X130.364 Y161.314
G0 X131.587 Y161.286
;TIME_ELAPSED:80.033668
;LAYER:-5
;TYPE:SUPPORT
G1 F2700 E50.39621
G1 F900 X138.71 Y168.408 E50.99924
G1 X138.529 Y168.3 E51.01186
G1 X138.252 Y168.121 E51.03161
G1 X137.661 Y167.726 E51.07416
G1 X137.414 Y167.552 E51.09225
G1 X136.852 Y167.135 E51.13415
G1 X136.593 Y166.933 E51.15381
G1 X136.009 Y166.452 E51.19911
G1 X135.743 Y166.223 E51.22012
G1 X135.215 Y165.745 E51.26276
G1 X134.99 Y165.53 E51.28139
G1 X134.448 Y164.988 E51.32728
G1 X134.204 Y164.73 E51.34854
G1 X133.691 Y164.159 E51.3945
G1 X133.486 Y163.92 E51.41335
G1 X133.039 Y163.369 E51.45582
G1 X132.852 Y163.129 E51.47404
G1 X132.411 Y162.534 E51.51838
G1 X132.235 Y162.283 E51.53673
G1 X131.813 Y161.648 E51.58238
G1 X131.644 Y161.381 E51.60129
G1 F2700 E46.60129
G0 F9000 X130.919 Y162.228
G0 X132.241 Y164.078
G0 X133.711 Y165.757
G0 X135.342 Y167.284
G0 X136.347 Y168.054
G0 X137.969 Y169.205
G0 X138.71 Y168.408
G1 F2700 E51.60129
G1 F900 X139.189 Y168.697 E51.63479
G1 X139.467 Y168.854 E51.6539
G1 X140.154 Y169.221 E51.70053
G1 X140.471 Y169.381 E51.72179
G1 X141.06 Y169.659 E51.76078
G1 X141.353 Y169.79 E51.78
G1 X141.615 Y169.899 E51.79699
G1 X130.097 Y158.382 E52.77213
G1 X129.911 Y157.93 E52.80139
G1 X129.807 Y157.665 E52.81844
G1 X129.546 Y156.939 E52.86462
G1 X129.431 Y156.591 E52.88657
G1 X129.307 Y156.177 E52.91244
G1 X143.821 Y170.691 E54.14129
G1 X144.076 Y170.768 E54.15724
G1 X144.367 Y170.849 E54.17532
G1 X145.096 Y171.033 E54.22033
G1 X145.435 Y171.109 E54.24113
G1 X145.707 Y171.163 E54.25773
G1 X128.834 Y154.289 E55.68635
G1 X128.737 Y153.797 E55.71638
G1 X128.687 Y153.493 E55.73482
G1 X128.58 Y152.77 E55.77858
G1 X128.559 Y152.6 E55.78883
G1 X147.397 Y171.439 E57.38382
G1 X147.527 Y171.456 E57.39167
G1 X148.218 Y171.524 E57.43324
G1 X148.51 Y171.546 E57.45077
G1 X148.94 Y171.567 E57.47655
G1 X128.43 Y151.057 E59.21305
G1 X128.41 Y150.65 E59.23745
G1 X128.403 Y150.349 E59.25548
G1 X128.404 Y149.633 E59.29834
G1 X128.404 Y149.618 E59.29924
G1 X150.379 Y171.592 E61.15974
G1 X150.672 Y171.587 E61.17729
G1 X151.404 Y171.551 E61.22116
G1 X151.728 Y171.527 E61.24061
G1 X128.471 Y148.27 E63.2097
G1 X128.476 Y148.21 E63.21331
G1 X128.542 Y147.528 E63.25433
G1 X128.587 Y147.167 E63.27611
G1 X128.612 Y146.996 E63.28645
G1 X153 Y171.385 E65.35134
G1 X153.527 Y171.307 E65.38324
G1 X153.824 Y171.256 E65.40128
G1 X154.209 Y171.179 E65.42478
G1 X128.818 Y145.789 E67.57451
G1 X128.887 Y145.443 E67.59563
G1 X128.96 Y145.118 E67.61557
G1 X129.08 Y144.637 E67.64525
G1 X155.361 Y170.917 E69.87033
G1 X155.528 Y170.875 E69.88064
G1 X155.861 Y170.786 E69.90127
G1 X156.462 Y170.605 E69.93885
G1 X129.392 Y143.534 E72.23081
G1 X129.431 Y143.408 E72.23871
G1 X129.546 Y143.059 E72.26071
G1 X129.754 Y142.482 E72.29743
G1 X157.517 Y170.245 E74.64803
G1 X157.57 Y170.226 E74.6514
G1 X157.93 Y170.088 E74.67448
G1 X158.527 Y169.841 E74.71316
G1 X130.157 Y141.471 E77.11515
G1 X130.206 Y141.356 E77.12263
G1 X130.339 Y141.059 E77.14211
G1 X130.603 Y140.502 E77.17901
G1 X159.496 Y169.395 E79.62528
G1 X159.528 Y169.381 E79.62737
G1 X159.845 Y169.221 E79.64863
G1 X160.426 Y168.911 E79.68806
G1 X131.086 Y139.572 E82.17213
G1 X131.142 Y139.469 E82.17915
G1 X131.31 Y139.176 E82.19937
G1 X131.608 Y138.679 E82.23406
G1 X161.319 Y168.39 E84.74959
G1 X161.384 Y168.352 E84.7541
G1 X161.679 Y168.166 E84.77497
G1 X162.177 Y167.834 E84.81081
G1 X132.163 Y137.82 E87.35199
G1 X132.245 Y137.699 E87.36074
G1 X132.441 Y137.421 E87.3811
G1 X132.755 Y136.998 E87.41264
G1 X163 Y167.242 E89.97334
G1 X163.13 Y167.146 E89.98301
G1 X163.408 Y166.93 E90.00409
G1 X163.789 Y166.618 E90.03357
G1 X133.38 Y136.208 E92.60824
G1 X133.527 Y136.029 E92.6221
G1 X133.773 Y135.746 E92.64455
G1 X134.038 Y135.452 E92.66825
G1 X164.545 Y165.96 E95.25121
G1 X164.806 Y165.723 E95.27232
G1 X164.988 Y165.551 E95.28731
G1 X165.269 Y165.269 E95.31114
G1 X134.73 Y134.73 E97.89677
G1 X135.035 Y134.424 E97.92264
G1 X135.258 Y134.214 E97.94098
G1 X135.452 Y134.038 E97.95666
G1 X165.961 Y164.547 E100.53975
G1 X166.264 Y164.212 E100.56679
G1 X166.449 Y163.995 E100.58386
G1 X166.618 Y163.789 E100.59981
G1 X136.209 Y133.38 E103.17444
G1 X136.611 Y133.05 E103.20557
G1 X136.848 Y132.866 E103.22354
G1 X136.998 Y132.755 E103.23471
G1 X167.244 Y163.001 E105.79553
G1 X167.56 Y162.573 E105.82738
G1 X167.756 Y162.295 E105.84775
G1 X167.835 Y162.178 E105.8562
G1 X137.822 Y132.165 E108.39729
G1 X138.325 Y131.828 E108.43354
G1 X138.61 Y131.649 E108.45369
G1 X138.679 Y131.608 E108.45849
G1 X168.392 Y161.321 E110.97419
G1 X168.705 Y160.798 E111.01068
G1 X168.857 Y160.528 E111.02923
G1 X168.912 Y160.426 E111.03617
G1 X139.573 Y131.088 E113.52016
G1 X140.149 Y130.78 E113.55926
G1 X140.439 Y130.634 E113.5787
G1 X140.503 Y130.604 E113.58293
G1 X169.398 Y159.498 E116.02932
G1 X169.69 Y158.874 E116.07057
G1 X169.812 Y158.597 E116.08869
G1 X169.841 Y158.527 E116.09323
G1 X141.472 Y130.158 E118.49513
G1 X142.095 Y129.9 E118.5355
G1 X142.423 Y129.774 E118.55654
G1 X142.482 Y129.754 E118.56027
